public/img/plus.svg

<svg fill="none" height="32" viewBox="0 0 32 32" width="32" xmlns="http://www.w3.org/2000/svg"><rect fill="#fff" height="31" rx="7.5" stroke="#f2f2f2" width="31" x=".5" y=".5"/><path d="m20.6653 15.1312h-3.4632v-3.463c0-1.3354-2.071-1.3354-2.071 0v3.463h-3.4631c-1.3351 0-1.3351 2.071 0 2.071h3.4631v3.463c0 1.3353 2.071 1.3353 2.071 0v-3.463h3.4632c1.3352 0 1.3352-2.071 0-2.071z" fill="#d3d3d3"/></svg>

<svg width="32" height="32" viewBox="0 0 32 32" fill="none" xmlns="http://www.w3.org/2000/svg">
<rect x="0.5" y="0.5" width="31" height="31" rx="7.5" fill="white" stroke="#F2F2F2"/>
<path d="M20.6653 15.1312H17.2021V11.6682C17.2021 10.3328 15.1311 10.3328 15.1311 11.6682V15.1312H11.668C10.3329 15.1312 10.3329 17.2022 11.668 17.2022H15.1311V20.6652C15.1311 22.0005 17.2021 22.0005 17.2021 20.6652V17.2022H20.6653C22.0005 17.2022 22.0005 15.1312 20.6653 15.1312Z" fill="#D3D3D3"/>
</svg>
